assets/svg/1F357.svg

<svg xmlns="http://www.w3.org/2000/svg" viewBox="0 0 64 64" enable-background="new 0 0 64 64"><g transform="translate(4)"><path d="m15.14 62.44c1.414-1.861-.528-3.279-2.686-4.917-.12-.087-.233-.174-.348-.26l18.03-23.729c.418-.546-.515-1.955-2.071-3.139-1.57-1.185-3.173-1.705-3.584-1.159l-18.03 23.726c-.055-.037-.11-.078-.165-.121-2.156-1.64-3.712-2.876-5.125-1.018-1.308 1.72-.872 4.262.909 5.935-.149 1.558.572 3.257 2.069 4.393 1.481 1.125 3.297 1.372 4.75.834 2.138 1.466 4.885 1.257 6.248-.545" fill="#f0ca94"/><path d="m8.804 61.21c-2.442 1.604-5.167-.313-4.864-2.948-1.602-2.37 3.842-4.628 4-4.515.097-.299.315-.634.63-1.103 1.763-2.688 13.677-18.01 17.829-23.25-.906-.413-1.65-.497-1.915-.154l-18.03 23.726-.165-.121c-2.156-1.64-3.712-2.876-5.125-1.018-1.308 1.72-.872 4.262.909 5.935-.149 1.558.572 3.257 2.069 4.393 1.481 1.125 3.297 1.372 4.75.834 1.114.762 2.393 1.06 3.557.92-1.808-1.447-3.517-2.783-3.646-2.696" fill="#d1ad83"/><path d="m28.21 42.73c9.403-.955 21.622-9.01 25.588-14.238 5.29-6.961 2.741-17.788-5.688-24.2-8.437-6.406-19.558-5.962-24.838.999-3.979 5.231-8.469 19.18-6.86 28.5-1.138-1.018-2.214-1.779-2.595-1.039-.625 1.215-.74 7.05.898 7.788 1.112.507 3.413.463 4.982.001.172.149.339.304.522.448.121.089.242.159.367.243-.001 1.629.564 3.848 1.344 4.78 1.155 1.378 6.735-.295 7.744-1.22.568-.532-.294-1.302-1.464-2.073" fill="#8a5f3d"/><path d="m23.86 35.69c1.346-.646 2.393-1.074 3.881-1.316-1.198.198.484-5.068.638-6.239 1.317-10.08 5.962-20.513 13.532-27.18-7.08-2.497-14.575-1.013-18.645 4.336-3.979 5.231-8.469 19.18-6.86 28.5-1.138-1.018-2.214-1.779-2.595-1.039-.625 1.215-.74 7.05.898 7.788 1.112.507 3.413.463 4.982.001.13.109.254.225.386.335.575-2.234 1.572-4.13 3.783-5.197" fill="#774f36"/></g></svg>

<?xml version="1.0" encoding="UTF-8" standalone="no"?>
<!-- Generator: Adobe Illustrator 16.0.0, SVG Export Plug-In . SVG Version: 6.00 Build 0)  -->

<svg
   xmlns:dc="http://purl.org/dc/elements/1.1/"
   xmlns:cc="http://creativecommons.org/ns#"
   xmlns:rdf="http://www.w3.org/1999/02/22-rdf-syntax-ns#"
   xmlns:svg="http://www.w3.org/2000/svg"
   xmlns="http://www.w3.org/2000/svg"
   xmlns:sodipodi="http://sodipodi.sourceforge.net/DTD/sodipodi-0.dtd"
   xmlns:inkscape="http://www.inkscape.org/namespaces/inkscape"
   version="1.1"
   id="Layer_1"
   x="0px"
   y="0px"
   width="64px"
   height="64px"
   viewBox="0 0 64 64"
   enable-background="new 0 0 64 64"
   xml:space="preserve"
   inkscape:version="0.48.5 r10040"
   sodipodi:docname="1F357.svg"
   inkscape:export-filename="D:\TESTINGEMOJI\SVGTEST\1F357.png"
   inkscape:export-xdpi="90"
   inkscape:export-ydpi="90"><metadata
   id="metadata4021"><rdf:RDF><cc:Work
       rdf:about=""><dc:format>image/svg+xml</dc:format><dc:type
         rdf:resource="http://purl.org/dc/dcmitype/StillImage" /><dc:title></dc:title></cc:Work></rdf:RDF></metadata><defs
   id="defs4019" /><sodipodi:namedview
   pagecolor="#ffffff"
   bordercolor="#666666"
   borderopacity="1"
   objecttolerance="10"
   gridtolerance="10"
   guidetolerance="10"
   inkscape:pageopacity="0"
   inkscape:pageshadow="2"
   inkscape:window-width="640"
   inkscape:window-height="481"
   id="namedview4017"
   showgrid="false"
   inkscape:zoom="3.6875"
   inkscape:cx="32"
   inkscape:cy="32"
   inkscape:window-x="342"
   inkscape:window-y="325"
   inkscape:window-maximized="0"
   inkscape:current-layer="Layer_1" />
<g
   id="g4007"
   transform="translate(4,0)">
	<path
   d="m 15.141,62.439 c 1.414,-1.861 -0.528,-3.279 -2.686,-4.917 -0.12,-0.087 -0.233,-0.174 -0.348,-0.26 L 30.141,33.533 C 30.559,32.987 29.626,31.578 28.07,30.394 26.5,29.209 24.897,28.689 24.486,29.235 L 6.455,52.961 C 6.4,52.924 6.345,52.883 6.29,52.84 4.134,51.2 2.578,49.964 1.165,51.822 c -1.308,1.72 -0.872,4.262 0.909,5.935 -0.149,1.558 0.572,3.257 2.069,4.393 1.481,1.125 3.297,1.372 4.75,0.834 2.138,1.466 4.885,1.257 6.248,-0.545 z"
   id="path4009"
   inkscape:connector-curvature="0"
   style="fill:#f0ca94" />
	<path
   d="M 8.804,61.208 C 6.362,62.812 3.637,60.895 3.94,58.26 2.338,55.89 7.782,53.632 7.942,53.745 8.039,53.446 8.257,53.111 8.572,52.642 10.335,49.954 22.249,34.629 26.401,29.389 25.495,28.976 24.751,28.892 24.486,29.235 L 6.455,52.961 6.29,52.84 C 4.134,51.2 2.578,49.964 1.165,51.822 c -1.308,1.72 -0.872,4.262 0.909,5.935 -0.149,1.558 0.572,3.257 2.069,4.393 1.481,1.125 3.297,1.372 4.75,0.834 1.114,0.762 2.393,1.06 3.557,0.92 -1.808,-1.447 -3.517,-2.783 -3.646,-2.696 z"
   id="path4011"
   inkscape:connector-curvature="0"
   style="fill:#d1ad83" />
	<path
   d="m 28.206,42.73 c 9.403,-0.955 21.622,-9.012 25.588,-14.238 5.29,-6.961 2.741,-17.788 -5.688,-24.198 -8.437,-6.406 -19.558,-5.962 -24.838,0.999 -3.979,5.231 -8.469,19.184 -6.86,28.5 -1.138,-1.018 -2.214,-1.779 -2.595,-1.039 -0.625,1.215 -0.74,7.045 0.898,7.788 1.112,0.507 3.413,0.463 4.982,0.01 0.172,0.149 0.339,0.304 0.522,0.448 0.121,0.089 0.242,0.159 0.367,0.243 -0.01,1.629 0.564,3.848 1.344,4.78 1.155,1.378 6.735,-0.295 7.744,-1.22 0.568,-0.532 -0.294,-1.302 -1.464,-2.073 z"
   id="path4013"
   inkscape:connector-curvature="0"
   style="fill:#8a5f3d" />
	<path
   d="m 23.86,35.69 c 1.346,-0.646 2.393,-1.074 3.881,-1.316 -1.198,0.198 0.484,-5.068 0.638,-6.239 C 29.696,18.052 34.341,7.622 41.911,0.957 34.831,-1.54 27.336,-0.056 23.266,5.293 c -3.979,5.231 -8.469,19.184 -6.86,28.5 -1.138,-1.018 -2.214,-1.779 -2.595,-1.039 -0.625,1.215 -0.74,7.045 0.898,7.788 1.112,0.507 3.413,0.463 4.982,0.01 0.13,0.109 0.254,0.225 0.386,0.335 0.575,-2.234 1.572,-4.13 3.783,-5.197 z"
   id="path4015"
   inkscape:connector-curvature="0"
   style="fill:#774f36" />
</g>
</svg>
